/* XPM */
static char *cobblestone[] = {
/* columns rows colors chars-per-pixel */
"16 16 27 1 ",
"  c #4C4C4C",
". c gray32",
"X c #565656",
"o c #5A5A5A",
"O c gray37",
"+ c #626262",
"@ c #646464",
"# c #686868",
"$ c #6C6C6C",
"% c gray44",
"& c #747474",
"* c gray48",
"= c gray49",
"- c #818181",
"; c gray53",
": c #898989",
"> c gray55",
", c #929292",
"< c #979797",
"1 c #9B9B9B",
"2 c gray61",
"3 c #A0A0A0",
"4 c gray65",
"5 c #A9A9A9",
"6 c #ACACAC",
"7 c gray69",
"8 c gray75",
/* pixels */
"=@+75=%53=@.o$47",
":+56;@5;7>>++3==",
"+3*==.5,==;X@+<-",
"++1=%X=->=Xo4++.",
"15XXXX#=.X51==+$",
"6=%636+X#82=>=;#",
"&;O2-*=+++=>:,Oo",
"*&&X  X:5-O+%.O@",
"+555-O6<55,$1>@+",
"+=;=>.@%55$= +55",
".o:=.++#o==.+55-",
"X+Xo+36-%.++6;,=",
"+21<o=3>55++5;;o",
"34>;#+.@&;=+*:=X",
"@>3=&==OOO=+$XX@",
";X&;=X@3==.#35+-"
};
