/* XPM */
static char * diamond_sword_xpm[] = {
"64 64 12 1",
" 	c #0E3F36",
".	c #000000",
"+	c #082520",
"@	c #A4FDF0",
"#	c #33EBCB",
"$	c #2BC7AC",
"%	c #156355",
"&	c #1E8A77",
"*	c #493615",
"=	c #896727",
"-	c #684E1E",
";	c #281E0B",
"       .........................................................",
"+@@@@@@ ........................................................",
"+@@@@@@@ .......................................................",
"+@@@@@@@@ ......................................................",
"+@@@#@@@@@ .....................................................",
"+@@@@#@@@@@ ....................................................",
"+@@@@@#@@@@@ ...................................................",
".+@@@@@#@@@@@ ..................................................",
"..+@@@@@#@@@@@ .................................................",
"...+@@@@@$@@@@@ ................................................",
"....+#@@@@$@@@@@ ...............................................",
".....+#@@@@$@@@@@ ..............................................",
"......+#@@@@$@@@@@ .............................................",
".......+#@@@@$@@@@@ ............................................",
"........+#@@@@$@@@@@ ...........................................",
".........+##@@@$@@@@@ ..........................................",
"..........+###@@$@@@@@ .........................................",
"...........+####@$@@@@@ ........................................",
"............+#####$@@@@@ .......................................",
".............+#####$#@@@@ ......................................",
"..............+$####$#@@@@ .....................................",
"...............+$####$##@@@ ....................................",
"................+$####$###@@ ...................................",
".................+$####$###@@ ..................................",
"..................+$####$####@ .................................",
"...................+$####$####@ ................................",
"....................+$####$##### ...............................",
".....................+$####$##### ..............................",
"......................+$####$##### .................    ........",
".......................+$####$##### ..............  %&& ........",
"........................+$####$##### ............ %&&&% ........",
".........................+$####$##### .......... %&&&% .........",
"..........................+$####$##### ........ %&&&% ..........",
"...........................+$####$##### ...... %&&&& ...........",
"............................+$####$##### .... %&&&&% ...........",
".............................+$####$##### .. %&&&&& ............",
"..............................+$####&####$++%&&&&&% ............",
"...............................+$####&$#$$%&&&&&&& .............",
"................................+$###$&$$$&&&&&&&& .............",
".................................+$###$&$&&&&&&&&% .............",
"..................................+$#$$$&%%&&&&&& ..............",
"...................................+$$$&%%%%&&&&& ..............",
"....................................+%  %%%%%&&&% ..............",
"....................................+    %%%%%&% ...............",
"...................................+      %%%%%% ...............",
"..................................+        %%%%% *..............",
".................................+          %%% =-*.............",
"................................+            % -==-*............",
"...............................+           +++**-==-*...........",
"..............................+         +++..;***-==-*..........",
".............................+       +++......;***-==-*.........",
".............................+     ++..........;***-==-*........",
"............................+    ++.............;***-==-*.......",
"............................+   +................;***--=-*......",
"............................+  +..................;***----    ..",
"............................+++....................;***-- %%%% .",
"....................................................;*** %%%%%% ",
".....................................................;*+%%%%%%% ",
"......................................................+ %%%%%%% ",
"......................................................+ %%%%%%% ",
"......................................................+  %%%%%% ",
"......................................................+    %%%  ",
".......................................................+      +.",
"........................................................++++++.."};
