/* XPM */
static char *planks_acacia[] = {
/* columns rows colors chars-per-pixel */
"16 16 8 1 ",
"  c #7B4126",
". c #884728",
"X c #8F4C2A",
"o c #974E2C",
"O c #A05630",
"+ c #AD5D32",
"@ c #BA6337",
"# c #BA683B",
/* pixels */
"#++++##@+######O",
"##@O@@+++++@+@#O",
"##++++@@O##@###O",
"...XXXXXXX....XX",
"#++++##O#++O@@@#",
"++O@@@#O@@@@++++",
"###@###O++O#####",
"XX.....XXX....XX",
"#####O+##@@@###O",
"+++++#@@+++O#++O",
"#@@@##++++@@@@@O",
"X.XX...XXXXX...X",
"#####+#O+O++@###",
"@+O####O#@@++++@",
"##+++##O##+@####",
"XXXo..o.XXX. ..X"
};
